svg/fluentui-system-icons/ic_fluent_cloud_error_28_filled.svg

<svg width="28" height="28" viewBox="0 0 28 28" fill="none" xmlns="http://www.w3.org/2000/svg">
<path d="M7.51894 10C7.77426 6.64378 10.5784 4 14 4C17.4216 4 20.2257 6.64378 20.4811 10H20.75C23.0592 10 24.9835 11.6477 25.4113 13.8316C24.0955 12.6905 22.3784 12 20.5 12C16.3579 12 13 15.3579 13 19.5H7.25C4.62665 19.5 2.5 17.3734 2.5 14.75C2.5 12.1266 4.62665 10 7.25 10H7.51894ZM27 19.5C27 23.0899 24.0899 26 20.5 26C16.9101 26 14 23.0899 14 19.5C14 15.9101 16.9101 13 20.5 13C24.0899 13 27 15.9101 27 19.5ZM20.5 16C20.2239 16 20 16.2239 20 16.5V20.5C20 20.7761 20.2239 21 20.5 21C20.7761 21 21 20.7761 21 20.5V16.5C21 16.2239 20.7761 16 20.5 16ZM20.5 23.125C20.8452 23.125 21.125 22.8452 21.125 22.5C21.125 22.1548 20.8452 21.875 20.5 21.875C20.1548 21.875 19.875 22.1548 19.875 22.5C19.875 22.8452 20.1548 23.125 20.5 23.125Z" fill="#212121"/>
</svg>

<svg xmlns="http://www.w3.org/2000/svg" width="28" height="28"><path d="M7.519 10a6.5 6.5 0 0 1 12.962 0h.269a4.751 4.751 0 0 1 4.661 3.832A7.5 7.5 0 0 0 13 19.5H7.25a4.75 4.75 0 1 1 0-9.5h.269ZM27 19.5a6.5 6.5 0 1 1-13 0 6.5 6.5 0 0 1 13 0ZM20.5 16a.5.5 0 0 0-.5.5v4a.5.5 0 0 0 1 0v-4a.5.5 0 0 0-.5-.5Zm0 7.125a.625.625 0 1 0 0-1.25.625.625 0 0 0 0 1.25Z"/></svg>
